public/assets/close.svg

<svg fill="none" height="44" viewBox="0 0 44 44" width="44" xmlns="http://www.w3.org/2000/svg"><rect height="42" rx="9" stroke="#ff5900" stroke-width="2" width="42" x="1" y=".999725"/><path clip-rule="evenodd" d="m15.0072 13.5926c-.3906-.3905-1.0237-.3905-1.4143 0-.3905.3905-.3905 1.0237 0 1.4142l6.9021 6.9021-6.9018 6.9019c-.3905.3905-.3905 1.0237 0 1.4142s1.0237.3905 1.4142 0l6.9019-6.9019 6.9018 6.9019c.3905.3905 1.0237.3905 1.4142 0s.3905-1.0237 0-1.4142l-6.9018-6.9019 6.9021-6.9021c.3905-.3905.3905-1.0237 0-1.4142-.3906-.3905-1.0237-.3905-1.4142 0l-6.9021 6.9021z" fill="#ff5900" fill-rule="evenodd"/></svg>

<svg width="44" height="44" viewBox="0 0 44 44" fill="none" xmlns="http://www.w3.org/2000/svg">
<rect x="1" y="0.999725" width="42" height="42" rx="9" stroke="#FF5900" stroke-width="2"/>
<path fill-rule="evenodd" clip-rule="evenodd" d="M15.0072 13.5926C14.6166 13.2021 13.9835 13.2021 13.5929 13.5926C13.2024 13.9831 13.2024 14.6163 13.5929 15.0068L20.495 21.9089L13.5932 28.8108C13.2027 29.2013 13.2027 29.8345 13.5932 30.225C13.9837 30.6155 14.6169 30.6155 15.0074 30.225L21.9093 23.3231L28.8111 30.225C29.2016 30.6155 29.8348 30.6155 30.2253 30.225C30.6158 29.8345 30.6158 29.2013 30.2253 28.8108L23.3235 21.9089L30.2256 15.0068C30.6161 14.6163 30.6161 13.9831 30.2256 13.5926C29.835 13.2021 29.2019 13.2021 28.8114 13.5926L21.9093 20.4947L15.0072 13.5926Z" fill="#FF5900"/>
</svg>
